svgs/solid/ruler-combined.svg

<svg xmlns="http://www.w3.org/2000/svg" viewBox="0 0 512 512"><!-- Font Awesome Pro 6.0.0-alpha2 by @fontawesome - https://fontawesome.com License - https://fontawesome.com/license (Commercial License) --><path d="M512 352V480C512 497.6 497.6 512 480 512H32C14.4 512 0 497.6 0 480V32C0 14.4 14.4 0 32 0H160C177.6 0 192 14.4 192 32V96H112C103.201 96 96 103.199 96 112S103.201 128 112 128H192V192H112C103.201 192 96 199.199 96 208S103.201 224 112 224H192V288H112C103.201 288 96 295.199 96 304S103.201 320 112 320H192V400C192 408.799 199.199 416 208 416S224 408.799 224 400V320H288V400C288 408.799 295.199 416 304 416S320 408.799 320 400V320H384V400C384 408.799 391.199 416 400 416S416 408.799 416 400V320H480C497.6 320 512 334.4 512 352Z"/></svg>

<svg xmlns="http://www.w3.org/2000/svg" viewBox="0 0 512 512"><!--! Font Awesome Pro 6.0.0-alpha3 by @fontawesome - https://fontawesome.com License - https://fontawesome.com/license (Commercial License) --><path d="M512 352v128c0 17.6-14.4 32-32 32H32c-17.6 0-32-14.4-32-32v-448c0-17.6 14.4-32 32-32l128 0c17.6 0 32 14.4 32 31.1v64H112c-8.799 0-16 7.199-16 16s7.201 16 16 16L192 128v64H112C103.2 192 96 199.2 96 208S103.2 224 112 224H192v64H112C103.2 288 96 295.2 96 304S103.2 320 112 320H192v80C192 408.8 199.2 416 208 416S224 408.8 224 400V320h64v80c0 8.799 7.199 16 16 16s16-7.201 16-16V320h64v80c0 8.799 7.199 16 16 16s16-7.201 16-16V320h64C497.6 320 512 334.4 512 352z"/></svg>
